packages/foundations/assets/icons/functional/images/transportation/handcart_16.svg

<svg width="16" height="16" viewBox="0 0 16 16" fill="none" xmlns="http://www.w3.org/2000/svg">
<g clip-path="url(#clip0_2214_7287)">
<path fill-rule="evenodd" clip-rule="evenodd" d="M3.60028 11.2C4.26302 11.2 4.80028 11.7373 4.80028 12.4C4.80028 13.0628 4.26302 13.6 3.60028 13.6C2.93754 13.6 2.40028 13.0628 2.40028 12.4C2.40028 11.7373 2.93754 11.2 3.60028 11.2ZM9.20028 11.2C9.86302 11.2 10.4003 11.7373 10.4003 12.4C10.4003 13.0628 9.86302 13.6 9.20028 13.6C8.53754 13.6 8.00028 13.0628 8.00028 12.4C8.00028 11.7373 8.53754 11.2 9.20028 11.2ZM6.91563 11.8C7.247 11.8 7.51563 12.0687 7.51563 12.4C7.51563 12.7038 7.26377 13 6.91563 13H6.00028C5.66891 13 5.40028 12.7314 5.40028 12.4C5.40028 12.0963 5.65494 11.8 6.00028 11.8H6.91563ZM11.2295 2.40002C12.3828 2.40002 13.3656 3.21865 13.5846 4.33746C14.1187 8.27139 14.3882 10.2566 14.3931 10.293C14.44 10.6697 14.2307 10.971 13.96 11.1149L12.3581 11.9156C11.9629 12.1132 11.4823 11.953 11.2847 11.5578C11.1013 11.1908 11.2275 10.7015 11.6425 10.4845L12.7299 9.94002L12.0223 4.69296C11.9729 4.32664 11.6796 3.99907 11.2003 3.99907C10.7585 3.99907 10.4127 3.64185 10.4127 3.20002C10.4127 2.78976 10.7352 2.40002 11.2295 2.40002ZM10.4003 5.60002C10.8421 5.60002 11.2003 5.9582 11.2003 6.40002C11.2003 6.81029 10.8663 7.19464 10.4127 7.20011L10.3995 8.80002C10.4127 10.0376 10.0242 10.4 8.79948 10.3984H3.99753C2.74149 10.4 2.39948 10.0109 2.39948 8.80002V7.19464C1.92871 7.19464 1.60028 6.81029 1.60028 6.40002C1.60028 5.98976 1.93888 5.60002 2.39948 5.60002H10.4003ZM8.79948 7.20002H3.99948L4.00028 8.80002H8.80028L8.79948 7.20002Z" fill="#1A1C1F"/>
</g>
<defs>
<clipPath id="clip0_2214_7287">
<rect width="16" height="16" fill="white"/>
</clipPath>
</defs>
</svg>

<svg xmlns="http://www.w3.org/2000/svg" width="16" height="16" fill="none"><g clip-path="url(#a)"><path fill="#1A1C1F" fill-rule="evenodd" d="M3.6 11.2a1.2 1.2 0 1 1 0 2.4 1.2 1.2 0 0 1 0-2.4m5.6 0a1.2 1.2 0 1 1 0 2.4 1.2 1.2 0 0 1 0-2.4m-2.284.6a.6.6 0 0 1 .6.6c0 .304-.252.6-.6.6H6a.6.6 0 0 1-.6-.6c0-.304.255-.6.6-.6zm4.313-9.4a2.4 2.4 0 0 1 2.356 1.937l.808 5.956a.81.81 0 0 1-.433.822l-1.602.8a.8.8 0 0 1-1.073-.357.81.81 0 0 1 .357-1.073l1.088-.545-.708-5.247c-.05-.366-.342-.694-.822-.694a.79.79 0 0 1-.787-.799.8.8 0 0 1 .816-.8M10.4 5.6a.8.8 0 0 1 .013 1.6l-.014 1.6c.014 1.238-.375 1.6-1.6 1.598H3.998C2.74 10.4 2.399 10.011 2.399 8.8V7.195c-.47 0-.799-.385-.799-.795s.339-.8.8-.8zM8.8 7.2H4v1.6h4.8z" clip-rule="evenodd"/></g><defs><clipPath id="a"><path fill="#fff" d="M0 0h16v16H0z"/></clipPath></defs></svg>
